assets/icons/rotate-left.svg

<?xml version="1.0" encoding="UTF-8" standalone="no"?>
<svg viewBox="0 0 24 24" height="24" width="24" version="1.1" id="svg12" sodipodi:docname="rotate-left.svg" inkscape:version="1.1 (ce6663b3b7, 2021-05-25)"
   xmlns:inkscape="http://www.inkscape.org/namespaces/inkscape"
   xmlns:sodipodi="http://sodipodi.sourceforge.net/DTD/sodipodi-0.dtd"
   xmlns="http://www.w3.org/2000/svg"
   xmlns:svg="http://www.w3.org/2000/svg">
   <defs id="defs16" />
   <sodipodi:namedview id="namedview14" pagecolor="#ffffff" bordercolor="#666666" borderopacity="1.0" inkscape:pageshadow="2" inkscape:pageopacity="0.0" inkscape:pagecheckerboard="0" showgrid="true" inkscape:snap-page="true" inkscape:zoom="28" inkscape:cx="9.1607143" inkscape:cy="12.035714" inkscape:window-width="1920" inkscape:window-height="1043" inkscape:window-x="1920" inkscape:window-y="0" inkscape:window-maximized="1" inkscape:current-layer="svg12" inkscape:snap-center="true">
      <inkscape:grid type="xygrid" id="grid825" />
   </sodipodi:namedview>
   <g fill="#808080" id="g10" transform="matrix(1.25,0,0,1.25,2,2)" style="stroke-width:0.8">
      <path id="path2" style="stroke-width:0.8;marker:none" d="M 12 3 A 9 9 0 0 0 6.1601562 5.1816406 L 4.6132812 3.6347656 C 4.2807812 4.5585156 3.9642188 5.5230469 3.6679688 6.5292969 C 3.3792187 7.5305469 3.1213281 8.5182813 2.8925781 9.4882812 C 3.8713281 9.2682813 4.8613281 9.0114064 5.8613281 8.7226562 C 6.8688281 8.4264064 7.8291406 8.1088281 8.7441406 7.7675781 L 6.8671875 5.8886719 A 8 8 0 0 1 12 4 A 8 8 0 0 1 20 12 A 8 8 0 0 1 12 20 A 8.0000001 8.0000001 0 0 1 10.611328 19.878906 L 10.4375 20.863281 A 8.9999997 8.9999997 0 0 0 12 21 A 9 9 0 0 0 21 12 A 9 9 0 0 0 12 3 z M 5.4472656 16.589844 L 4.6269531 17.162109 A 8.9999997 8.9999997 0 0 0 5.6367188 18.363281 L 6.34375 17.65625 A 8.0000001 8.0000001 0 0 1 5.4472656 16.589844 z M 6.8574219 18.128906 L 6.2148438 18.894531 A 8.9999997 8.9999997 0 0 0 7.5 19.794922 L 8 18.927734 A 8.0000001 8.0000001 0 0 1 6.8574219 18.128906 z M 8.6191406 19.251953 L 8.1972656 20.15625 A 8.9999997 8.9999997 0 0 0 9.6699219 20.693359 L 9.9296875 19.726562 A 8.0000001 8.0000001 0 0 1 8.6191406 19.251953 z " transform="matrix(0.8,0,0,0.8,-1.6,-1.6)" />
   </g>
   <path id="path849" style="fill:#808080;fill-rule:evenodd;stroke-width:0.5;stroke-linecap:round;stroke-linejoin:round;fill-opacity:1" d="M 12 10 A 2 2 0 0 0 10 12 A 2 2 0 0 0 12 14 A 2 2 0 0 0 14 12 A 2 2 0 0 0 12 10 z M 12 11 A 1 1 0 0 1 13 12 A 1 1 0 0 1 12 13 A 1 1 0 0 1 11 12 A 1 1 0 0 1 12 11 z " />
</svg>

<svg height="24" width="24" xmlns="http://www.w3.org/2000/svg"><path style="stroke-width:.8;marker:none" d="M12 3a9 9 0 0 0-5.84 2.182L4.613 3.635a51.768 51.768 0 0 0-.945 2.894 62.232 62.232 0 0 0-.775 2.96c.978-.22 1.968-.478 2.968-.766a42.812 42.812 0 0 0 2.883-.955l-1.877-1.88A8 8 0 0 1 12 4a8 8 0 0 1 8 8 8 8 0 0 1-8 8 8 8 0 0 1-1.389-.121l-.174.984A9 9 0 0 0 12 21a9 9 0 0 0 9-9 9 9 0 0 0-9-9zM5.447 16.59l-.82.572a9 9 0 0 0 1.01 1.201l.707-.707a8 8 0 0 1-.897-1.066zm1.41 1.539-.642.766a9 9 0 0 0 1.285.9l.5-.867a8 8 0 0 1-1.143-.8zm1.762 1.123-.422.904a9 9 0 0 0 1.473.537l.26-.966a8 8 0 0 1-1.31-.475z" fill="gray"/><path style="fill:gray;stroke-width:.5;stroke-linecap:round;stroke-linejoin:round;fill-opacity:1" d="M12 10a2 2 0 0 0-2 2 2 2 0 0 0 2 2 2 2 0 0 0 2-2 2 2 0 0 0-2-2zm0 1a1 1 0 0 1 1 1 1 1 0 0 1-1 1 1 1 0 0 1-1-1 1 1 0 0 1 1-1z"/></svg>
